!!!COM: Beethoven
!!!OTL: 7 Variations on a Quartet by Winter
!!!Variation: Variation 5 a
**function	**harm	**kern	**kern
*	*	*clefG2	*clefG2
*	*	*k[b-]	*k[b-]
*M2/4	*M2/4	*M2/4	*M2/4
*F:	*F:	*F:	*F:
4T	4I	(8cL	4r
.	.	16fJk)	.
.	.	16r	.
=246	=246	=246	=246
2T	2I	(8fL	2r
.	.	16aJk)	.
.	.	16r	.
.	.	(8aL	.
.	.	16ccJk)	.
.	.	16r	.
=247	=247	=247	=247
4T	4V7d	(4b-	16r
.	.	.	16ccLL
.	.	.	16dd
.	.	.	16eeJJ
4T	4Ib	4a)	16ffLL
.	.	.	16ee
.	.	.	16dd
.	.	.	16ccJJ
=248	=248	=248	=248
8T	8V7c	8gL	16b-LL
.	.	.	16cc
8T	8I	8fJ	16dd-
.	.	.	16ccJJ
8T	8V7b	8eL	16b-LL
.	.	.	16cc
8T	8I	8fJ	16b-
.	.	.	16ccJJ
=249	=249	=249	=249
4T	4ii	4g	16b-LL
.	.	.	16cc
.	.	.	16b-
.	.	.	16ccJJ
4T	4V	16r	(8ccL
.	.	16ccLL	.
.	.	16b	16ffJk)
.	.	16ccJJ	16r
=250	=250	=250	=250
2T	2Ib	16aLL	(8ffL
.	.	16cc	.
.	.	16b	16aaJk)
.	.	16ccJJ	16r
.	.	16b-LL	(8aaL
.	.	16a	.
.	.	16g	16cccJk)
.	.	16fJJ	16r
=251	=251	=251	=251
4T	4V7b	16eLL	(4bb-
.	.	16c	.
.	.	16d	.
.	.	16eJJ	.
4T	4I	16fLL	4aa)
.	.	16g	.
.	.	16a	.
.	.	16fJJ	.
=252	=252	=252	=252
4P	4iib	16b-LL	8ggL
.	.	16g	.
.	.	16d	8ggJ
.	.	16B-JJ	.
.	.	.	q8ff
4D	4V7	16cLL	(8eeL
.	.	16e	.
.	.	16g	16ddL
.	.	16b-JJ	16eeJJ)
=253	=253	=253	=253
4T	4I	8aL	4ff
.	.	8fJ	.
*-	*-	*-	*-
